public/images/benefits/arrows_icon.svg

<svg width="36" height="40" viewBox="0 0 36 40" fill="none" xmlns="http://www.w3.org/2000/svg">
<path d="M13.022 7.55554C12.3619 7.55554 11.7289 7.81776 11.2621 8.28452C10.7954 8.75127 10.5331 9.38433 10.5331 10.0444C10.5331 10.7045 10.7954 11.3376 11.2621 11.8043C11.7289 12.2711 12.3619 12.5333 13.022 12.5333H26.925L23.7068 15.7514C23.2535 16.2209 23.0026 16.8496 23.0083 17.5021C23.0139 18.1547 23.2757 18.779 23.7371 19.2404C24.1986 19.7019 24.8228 19.9636 25.4754 19.9693C26.128 19.975 26.7567 19.7241 27.2261 19.2707L34.6928 11.8041C35.1594 11.3373 35.4215 10.7044 35.4215 10.0444C35.4215 9.38446 35.1594 8.75152 34.6928 8.28478L27.2261 0.818117C26.9965 0.580402 26.7219 0.390794 26.4182 0.260354C26.1146 0.129913 25.788 0.0612543 25.4575 0.0583825C25.127 0.0555108 24.7993 0.118484 24.4934 0.243628C24.1876 0.368771 23.9097 0.553579 23.676 0.787267C23.4423 1.02096 23.2575 1.29884 23.1323 1.60472C23.0072 1.9106 22.9442 2.23833 22.9471 2.5688C22.95 2.89928 23.0186 3.22587 23.1491 3.52952C23.2795 3.83318 23.4691 4.10781 23.7068 4.3374L26.925 7.55554H13.022Z" fill="url(#paint0_linear_18_770)"/>
<path d="M22.9776 32.4444C23.6377 32.4444 24.2707 32.1822 24.7375 31.7154C25.2043 31.2487 25.4665 30.6156 25.4665 29.9555C25.4665 29.2954 25.2043 28.6624 24.7375 28.1956C24.2707 27.7289 23.6377 27.4666 22.9776 27.4666H9.07466L12.2928 24.2485C12.5305 24.0189 12.7201 23.7443 12.8506 23.4406C12.981 23.137 13.0497 22.8104 13.0525 22.4799C13.0554 22.1494 12.9924 21.8217 12.8673 21.5158C12.7421 21.21 12.5573 20.9321 12.3236 20.6984C12.09 20.4647 11.8121 20.2799 11.5062 20.1547C11.2003 20.0296 10.8726 19.9666 10.5421 19.9695C10.2116 19.9724 9.88504 20.041 9.58139 20.1715C9.27773 20.3019 9.0031 20.4915 8.77351 20.7292L1.30684 28.1959C0.840243 28.6626 0.578125 29.2956 0.578125 29.9555C0.578125 30.6155 0.840243 31.2484 1.30684 31.7152L8.77351 39.1818C9.24292 39.6352 9.87161 39.8861 10.5242 39.8804C11.1768 39.8747 11.801 39.613 12.2625 39.1515C12.7239 38.6901 12.9857 38.0658 12.9914 37.4132C12.997 36.7607 12.7462 36.132 12.2928 35.6626L9.07466 32.4444H22.9776Z" fill="url(#paint1_linear_18_770)"/>
<defs>
<linearGradient id="paint0_linear_18_770" x1="6.92978" y1="59.3768" x2="58.7249" y2="24.0872" gradientUnits="userSpaceOnUse">
<stop stop-color="#982DEC"/>
<stop offset="0.572917" stop-color="#DC8DF8"/>
<stop offset="0.895833" stop-color="#A9C4F3"/>
</linearGradient>
<linearGradient id="paint1_linear_18_770" x1="6.92978" y1="59.3768" x2="58.7249" y2="24.0872" gradientUnits="userSpaceOnUse">
<stop stop-color="#982DEC"/>
<stop offset="0.572917" stop-color="#DC8DF8"/>
<stop offset="0.895833" stop-color="#A9C4F3"/>
</linearGradient>
</defs>
</svg>

<svg width="36" height="40" fill="none" xmlns="http://www.w3.org/2000/svg"><path d="M13.022 7.556a2.489 2.489 0 0 0 0 4.977h13.903l-3.218 3.218a2.49 2.49 0 0 0 3.52 3.52l7.466-7.467a2.489 2.489 0 0 0 0-3.52L27.226.819a2.489 2.489 0 1 0-3.52 3.52l3.219 3.218H13.022Z" fill="url(#a)"/><path d="M22.978 32.444a2.489 2.489 0 1 0 0-4.977H9.075l3.218-3.218a2.49 2.49 0 1 0-3.52-3.52l-7.466 7.467a2.489 2.489 0 0 0 0 3.52l7.467 7.466a2.489 2.489 0 0 0 3.519-3.52l-3.218-3.218h13.903Z" fill="url(#b)"/><defs><linearGradient id="a" x1="6.93" y1="59.377" x2="58.725" y2="24.087" gradientUnits="userSpaceOnUse"><stop stop-color="#982DEC"/><stop offset=".573" stop-color="#DC8DF8"/><stop offset=".896" stop-color="#A9C4F3"/></linearGradient><linearGradient id="b" x1="6.93" y1="59.377" x2="58.725" y2="24.087" gradientUnits="userSpaceOnUse"><stop stop-color="#982DEC"/><stop offset=".573" stop-color="#DC8DF8"/><stop offset=".896" stop-color="#A9C4F3"/></linearGradient></defs></svg>
